chinaciticbank.svg

<?xml version="1.0" encoding="UTF-8"?>
<svg viewBox="0 0 8 8" version="1.1" xmlns="http://www.w3.org/2000/svg" xmlns:xlink="http://www.w3.org/1999/xlink">
    <title>China CITIC Bank</title>
    <g id="Page-1" stroke="none" stroke-width="1" fill="none" fill-rule="evenodd">
        <path d="M4.00006618,-7.10542736e-15 C6.20928116,-7.10542736e-15 8,1.79098354 8,4.00006618 C8,6.20928116 6.20928116,8.00013235 4.00006618,8.00013235 C1.79098354,8.00013235 2.70550806e-16,6.20928116 0,4.00006618 C-2.70534598e-16,1.79098354 1.79098354,-7.10542736e-15 4.00006618,-7.10542736e-15 Z M4.00006618,0.331408719 C1.97389362,0.331408719 0.331408719,1.97402597 0.331408719,4.00006618 C0.331408719,6.02610638 1.97389362,7.66859128 4.00006618,7.66859128 C6.02610638,7.66859128 7.66845893,6.02610638 7.66845893,4.00006618 C7.66845893,1.97402597 6.02610638,0.331408719 4.00006618,0.331408719 Z M4.00006618,0.579885847 C4.48156175,0.579885847 4.93976342,0.679679047 5.35521549,0.859280337 C5.41874431,0.893162379 5.5021259,0.956558855 5.5021259,1.05542559 C5.5021259,1.23674746 5.25105468,1.19849781 4.93618992,1.44890727 C4.64554554,1.68078749 4.49479692,2.00690214 4.49479692,2.37245761 L4.49479692,7.38422037 C4.33346017,7.40738192 4.16815287,7.41982298 4.00006618,7.41982298 C3.83250889,7.41982298 3.667731,7.40738192 3.50639424,7.38422037 L3.50639424,2.37245761 C3.50639424,2.00690214 3.35577798,1.68078749 3.06473654,1.44890727 C2.75040119,1.19849781 2.49893291,1.23674746 2.49893291,1.05542559 C2.49893291,0.953911821 2.5864174,0.889985938 2.65100505,0.856500951 C3.06473654,0.678620233 3.52095293,0.579885847 4.00006618,0.579885847 Z M5.49842005,1.52654479 L5.49842005,7.07512615 C5.2833485,7.17994871 5.05557118,7.26280089 4.81813219,7.32143271 L4.81813219,2.47325668 C4.81813219,2.1370833 4.93870461,1.90136488 5.17137894,1.71607246 C5.28414261,1.62620564 5.42708247,1.55950037 5.49842005,1.52654479 Z M2.50285158,1.52651832 C2.57418916,1.5594739 2.71699667,1.62617917 2.82962799,1.71591364 C3.06243468,1.90133841 3.1830071,2.13718918 3.1830071,2.47323021 L3.1830071,7.32167094 C2.94570045,7.26343618 2.71792314,7.1803193 2.50285158,7.07549673 L2.50285158,1.52651832 Z M2.16866242,1.11129179 L2.16866242,3.79392889 C1.77928365,3.78400251 1.63634378,3.54815174 1.59280007,3.45656435 C1.5573298,3.38138857 1.53416825,3.30210989 1.46666887,3.30210989 C1.35377285,3.30210989 1.26205311,3.62875394 1.26205311,4.03163259 C1.26205311,4.43464359 1.35377285,4.7611553 1.46666887,4.7611553 C1.53416825,4.7611553 1.5573298,4.68200897 1.59280007,4.60670084 C1.63634378,4.51498109 1.77928365,4.27926267 2.16866242,4.26920394 L2.16866242,6.88870927 C1.21387708,6.28214132 0.579912317,5.21525407 0.579912317,4.00000053 C0.579912317,2.78474699 1.21387708,1.71772739 2.16866242,1.11129179 Z M5.83213275,1.11186037 C6.73199213,1.68388452 7.34636883,2.66500786 7.41360351,3.79304161 C7.04182751,3.77451237 6.90378466,3.54647034 6.86103506,3.45660352 C6.82569715,3.38142774 6.80266795,3.30214906 6.73516857,3.30214906 C6.62214019,3.30214906 6.53068515,3.62879312 6.53068515,4.03167177 C6.53068515,4.43455042 6.62214019,4.76119447 6.73516857,4.76119447 C6.80266795,4.76119447 6.82569715,4.68178344 6.86103506,4.60674001 C6.90351996,4.51727025 7.0407687,4.29055174 7.40936825,4.27030193 C7.32320728,5.37186533 6.71518346,6.32691538 5.83213275,6.88808669 Z" id="China-CITIC-Bank" fill="#D91920" fill-rule="nonzero"></path>
    </g>
</svg>

<svg viewBox="0 0 8 8" xmlns="http://www.w3.org/2000/svg"><path d="M4 0a4 4 0 1 1 0 8 4 4 0 0 1 0-8Zm0 .331A3.669 3.669 0 1 0 4 7.67 3.669 3.669 0 0 0 4 .33ZM4 .58c.482 0 .94.1 1.355.28.064.033.147.097.147.195 0 .182-.25.143-.566.394-.29.232-.441.558-.441.923v5.012a3.481 3.481 0 0 1-.989 0V2.372c0-.365-.15-.691-.441-.923-.315-.25-.566-.212-.566-.394 0-.101.087-.165.152-.198.414-.178.87-.277 1.35-.277Zm1.498.947v5.548a3.428 3.428 0 0 1-.68.246V2.473c0-.336.12-.572.353-.757.113-.09.256-.156.327-.19Zm-2.995 0c.071.032.214.1.327.189.232.185.353.421.353.757v4.849a3.404 3.404 0 0 1-.68-.247V1.527Zm-.334-.416v2.683c-.39-.01-.533-.246-.576-.337-.036-.076-.059-.155-.126-.155-.113 0-.205.327-.205.73 0 .403.092.73.205.73.067 0 .09-.08.126-.155.043-.092.186-.328.576-.338v2.62A3.417 3.417 0 0 1 .579 4c0-1.215.635-2.282 1.59-2.889Zm3.663 0a3.418 3.418 0 0 1 1.582 2.682c-.372-.018-.51-.247-.553-.336-.035-.076-.058-.155-.126-.155-.113 0-.204.327-.204.73 0 .403.091.73.204.73.068 0 .09-.08.126-.155.043-.09.18-.316.548-.337a3.418 3.418 0 0 1-1.577 2.618Z" fill="#D91920" fill-rule="nonzero"/></svg>
